X: 1
T: the Butcher's Fancy
T: the Butcher's March
T: the Boys of Clones
M: 6/8
L: 1/8
F: http://www.thesession.org/tunes/display/1003
R: jig
K: G
  GB \
| ded BAB | dBA A2B | ded BAB | dBA G2B \
| ded BAB | dBA A2g | faf g2e | dBA G :|
|: Bd \
| eAA fAA | e3  Acd | eAA g2e | dBA GBd \
| eAA fAA | e2A efg | faf g2e | dBA G :|
